svg/icon/rcn.svg

<svg xmlns="http://www.w3.org/2000/svg" xmlns:xlink="http://www.w3.org/1999/xlink" width="32" height="32" viewBox="0 0 32 32">
  <defs>
    <linearGradient id="rcn-c" x1="50%" x2="50%" y1="0%" y2="100%">
      <stop offset="0%" stop-color="#FFF" stop-opacity=".5"/>
      <stop offset="100%" stop-opacity=".5"/>
    </linearGradient>
    <circle id="rcn-b" cx="16" cy="15" r="15"/>
    <filter id="rcn-a" width="111.7%" height="111.7%" x="-5.8%" y="-4.2%" filterUnits="objectBoundingBox">
      <feOffset dy=".5" in="SourceAlpha" result="shadowOffsetOuter1"/>
      <feGaussianBlur in="shadowOffsetOuter1" result="shadowBlurOuter1" stdDeviation=".5"/>
      <feComposite in="shadowBlurOuter1" in2="SourceAlpha" operator="out" result="shadowBlurOuter1"/>
      <feColorMatrix in="shadowBlurOuter1" values="0 0 0 0 0   0 0 0 0 0   0 0 0 0 0  0 0 0 0.199473505 0"/>
    </filter>
    <path id="rcn-e" d="M14.3593872,5.62706515 C15.2095721,5.46879127 16.0805468,5.48719521 16.9407415,5.52963253 C17.9324955,5.64590212 18.9261194,5.85440792 19.8384539,6.26384143 C21.6583928,7.01677904 23.2187333,8.34727555 24.2610869,9.99442807 C24.6541145,10.5671153 24.9177829,11.2094128 25.1834313,11.8456478 C25.4290598,11.4535356 25.6492785,11.0463756 25.8627872,10.6366173 C25.9548566,10.4434842 26.1477955,10.2937627 26.3726341,10.3036142 C26.6749122,10.272111 26.9719104,10.515043 26.9973203,10.8132951 C27.0219601,11.0536289 26.8711511,11.2611603 26.7717117,11.4686918 C26.4600836,12.0998387 26.056716,12.6811866 25.6398185,13.248461 C25.562819,13.3311704 25.5951588,13.4448418 25.6043988,13.5446561 C26.0682659,16.2819714 25.1853013,19.1957479 23.3039828,21.2573138 C22.2342393,22.4577919 20.8493477,23.3778806 19.327067,23.9276171 C17.5691677,24.5423086 15.6331795,24.6808795 13.8145605,24.2507686 C11.1790866,23.68003 8.8466608,21.9423734 7.52061887,19.6359268 C7.23099063,19.1690081 7.04608176,18.6501252 6.81717315,18.1543015 C6.56758467,18.5385108 6.35517597,18.9437222 6.14177727,19.3476345 C6.0415753,19.5505601 5.83921474,19.6856691 5.6105905,19.7022892 C5.22955282,19.7029388 4.88382493,19.292531 5.03727399,18.9273752 C5.365182,18.1727054 5.81419926,17.4753044 6.3168962,16.8231554 C6.42502554,16.7095923 6.40962564,16.5499111 6.38960576,16.408742 C6.20810686,15.2089135 6.25276659,13.9729266 6.55042478,12.7947497 C7.32042009,9.47121492 10.0795333,6.69427708 13.4253829,5.83004976 C13.735031,5.75654227 14.0446791,5.67967876 14.3597172,5.62706515 L14.3593872,5.62706515 Z M11.9981416,7.63731655 C10.2251724,8.5692054 8.79881109,10.1281273 8.0573056,11.9685211 C7.6301782,13.0809851 7.41193953,14.2769164 7.47870913,15.4670016 C7.66649205,15.3257523 7.84531836,15.1733283 8.01418587,15.010584 C9.00923981,14.1228646 10.1744627,13.4350985 11.3923753,12.8866612 C13.6553915,11.8582058 16.1467663,11.4148874 18.6234013,11.2952618 C17.7858664,10.4270289 16.8782619,9.62645755 16.041387,8.75833294 C16.3053854,8.46874155 16.5906136,8.19950275 16.8773819,7.9322126 C17.2017699,8.22645911 17.5020681,8.54495551 17.8204062,8.84569752 C18.8494499,9.87090516 19.9112734,10.8651509 20.9243673,11.9047569 C19.8445038,12.9824699 18.7360406,14.0319275 17.6562872,15.1092074 C17.5653284,15.1946347 17.4698636,15.2752906 17.3702889,15.3508403 C17.0980406,15.0769464 16.7816825,14.8366126 16.5641038,14.5161676 C17.2281698,13.8200656 17.9830952,13.2099209 18.6210913,12.4894609 C17.4791882,12.5052666 16.3426752,12.6667882 15.224862,12.8880685 C14.3218775,13.0504562 13.4538727,13.3549873 12.587408,13.6458778 C10.7707691,14.3256327 9.09569928,15.4104907 7.81904705,16.8599633 C7.74292752,16.9348781 7.75359745,17.0458431 7.77438733,17.1403527 C7.92519641,17.7878466 8.20954468,18.394094 8.52238277,18.979231 C9.5520865,20.8371627 11.3313257,22.2721286 13.3768732,22.919839 C14.5727859,23.2879178 15.8487782,23.4294116 17.0934206,23.2567394 C18.82525,23.0402224 20.4814,22.2854444 21.7656421,21.121666 C23.6309008,19.4778695 24.6774344,16.9730934 24.5156254,14.5135694 C24.3193866,14.6665386 24.1432777,14.8412677 23.9590288,15.0067949 C22.7119204,16.0809969 21.2726156,16.9174543 19.7145946,17.473464 C17.6941269,18.2226126 15.54265,18.611477 13.3876531,18.6718852 C13.575862,18.9175236 13.8080706,19.1244056 14.0269693,19.3430877 C14.6716753,19.9709868 15.3083515,20.60733 15.9629575,21.2246198 C15.710729,21.522114 15.4170308,21.7808517 15.1387325,22.052797 C14.8604342,21.826212 14.6182157,21.5615201 14.3599372,21.313933 C13.3849032,20.3688366 12.421199,19.4126979 11.4495749,18.4650033 C11.3175758,18.3395317 11.1879965,18.2108124 11.0798672,18.0650965 C11.5002846,17.6125761 11.9841717,17.2231704 12.4145991,16.7805016 C13.1546746,16.0659957 13.8748402,15.3298382 14.6236056,14.6237765 C14.9032239,14.8956135 15.1975821,15.1564081 15.4471706,15.4573666 C14.7811247,16.1469731 14.072179,16.795766 13.3976631,17.4774696 C14.1370786,17.5142774 14.8679141,17.3862077 15.6006197,17.317247 C16.1318064,17.2613857 16.6524333,17.1405692 17.1749301,17.0322025 C19.8604537,16.4128558 22.4752478,15.1368133 24.2771468,13.0359496 C23.5864611,10.0523463 21.0497665,7.59661137 18.0306149,6.90202507 C16.0198271,6.3908286 13.8274305,6.68182735 11.9981416,7.63731655 Z"/>
    <filter id="rcn-d" width="115.9%" height="118.4%" x="-8%" y="-6.6%" filterUnits="objectBoundingBox">
      <feOffset dy=".5" in="SourceAlpha" result="shadowOffsetOuter1"/>
      <feGaussianBlur in="shadowOffsetOuter1" result="shadowBlurOuter1" stdDeviation=".5"/>
      <feColorMatrix in="shadowBlurOuter1" values="0 0 0 0 0   0 0 0 0 0   0 0 0 0 0  0 0 0 0.204257246 0"/>
    </filter>
  </defs>
  <g fill="none" fill-rule="evenodd">
    <use fill="#000" filter="url(#rcn-a)" xlink:href="#rcn-b"/>
    <use fill="#3555F9" xlink:href="#rcn-b"/>
    <use fill="url(#rcn-c)" style="mix-blend-mode:soft-light" xlink:href="#rcn-b"/>
    <circle cx="16" cy="15" r="14.5" stroke="#000" stroke-opacity=".097"/>
    <g fill-rule="nonzero">
      <use fill="#000" filter="url(#rcn-d)" xlink:href="#rcn-e"/>
      <use fill="#FFF" fill-rule="evenodd" xlink:href="#rcn-e"/>
    </g>
  </g>
</svg>

<svg height="32" width="32" xmlns="http://www.w3.org/2000/svg" xmlns:xlink="http://www.w3.org/1999/xlink"><defs><linearGradient id="c" x1="50%" x2="50%" y1="0%" y2="100%"><stop offset="0" stop-color="#fff" stop-opacity=".5"/><stop offset="1" stop-opacity=".5"/></linearGradient><circle id="b" cx="16" cy="15" r="15"/><filter id="a" height="111.7%" width="111.7%" x="-5.8%" y="-4.2%"><feOffset dy=".5" in="SourceAlpha" result="shadowOffsetOuter1"/><feGaussianBlur in="shadowOffsetOuter1" result="shadowBlurOuter1" stdDeviation=".5"/><feComposite in="shadowBlurOuter1" in2="SourceAlpha" operator="out" result="shadowBlurOuter1"/><feColorMatrix in="shadowBlurOuter1" values="0 0 0 0 0 0 0 0 0 0 0 0 0 0 0 0 0 0 0.199473505 0"/></filter><path id="e" d="M14.36 5.627c.85-.158 1.72-.14 2.58-.097.992.116 1.986.324 2.898.734a9.64 9.64 0 0 1 4.423 3.73c.393.573.657 1.215.922 1.852.246-.392.466-.8.68-1.21.092-.193.285-.342.51-.332.302-.032.599.211.624.51.025.24-.126.447-.225.655-.312.63-.715 1.212-1.132 1.78-.077.082-.045.196-.036.296.464 2.737-.419 5.65-2.3 7.712a9.8 9.8 0 0 1-3.977 2.67c-1.758.615-3.694.754-5.512.324-2.636-.571-4.968-2.309-6.294-4.615-.29-.467-.475-.986-.704-1.482-.25.385-.462.79-.675 1.194a.643.643 0 0 1-.531.354c-.381 0-.727-.41-.574-.775.328-.754.777-1.452 1.28-2.104.108-.113.093-.273.073-.414a9.185 9.185 0 0 1 .16-3.614c.77-3.324 3.53-6.1 6.875-6.965.31-.073.62-.15.935-.203zm-2.362 2.01c-1.773.932-3.2 2.491-3.94 4.332-.428 1.112-.646 2.308-.58 3.498a5.77 5.77 0 0 0 .536-.456c.995-.888 2.16-1.576 3.378-2.124 2.263-1.029 4.755-1.472 7.231-1.592-.837-.868-1.745-1.669-2.582-2.537.264-.29.55-.558.836-.826.325.294.625.613.943.914 1.03 1.025 2.091 2.02 3.104 3.059-1.08 1.077-2.188 2.127-3.268 3.204a3.568 3.568 0 0 1-.286.242c-.272-.274-.588-.514-.806-.835.664-.696 1.42-1.306 2.057-2.027-1.142.016-2.278.178-3.396.4-.903.161-1.771.466-2.638.757-1.816.68-3.491 1.764-4.768 3.214-.076.075-.065.186-.045.28.151.648.436 1.254.748 1.84 1.03 1.857 2.81 3.292 4.855 3.94 1.196.368 2.472.51 3.716.337a8.593 8.593 0 0 0 4.673-2.135c1.865-1.644 2.911-4.149 2.75-6.608-.197.153-.373.327-.557.493a13.408 13.408 0 0 1-4.244 2.466c-2.02.75-4.172 1.138-6.327 1.199.188.246.42.452.639.671.645.628 1.281 1.264 1.936 1.882-.252.297-.546.556-.824.828-.279-.227-.52-.491-.78-.74-.974-.944-1.938-1.9-2.91-2.848a3.168 3.168 0 0 1-.37-.4c.421-.452.905-.842 1.336-1.284.74-.715 1.46-1.451 2.209-2.157.28.272.574.532.823.833-.666.69-1.375 1.339-2.05 2.02.74.037 1.47-.09 2.204-.16.53-.056 1.051-.176 1.574-.285 2.685-.62 5.3-1.895 7.102-3.996-.69-2.984-3.227-5.44-6.246-6.134-2.011-.511-4.204-.22-6.033.735z"/><filter id="d" height="118.4%" width="115.9%" x="-8%" y="-6.6%"><feOffset dy=".5" in="SourceAlpha" result="shadowOffsetOuter1"/><feGaussianBlur in="shadowOffsetOuter1" result="shadowBlurOuter1" stdDeviation=".5"/><feColorMatrix in="shadowBlurOuter1" values="0 0 0 0 0 0 0 0 0 0 0 0 0 0 0 0 0 0 0.204257246 0"/></filter></defs><g fill="none" fill-rule="evenodd"><use fill="#000" filter="url(#a)" xlink:href="#b"/><use fill="#3555f9" xlink:href="#b"/><use fill="url(#c)" xlink:href="#b"/><circle cx="16" cy="15" r="14.5" stroke="#000" stroke-opacity=".097"/><g fill-rule="nonzero"><use fill="#000" filter="url(#d)" xlink:href="#e"/><use fill="#fff" fill-rule="evenodd" xlink:href="#e"/></g></g></svg>
